X:777
%%etbk:tnset id:519,pos:1,rep:3x,ant:
%%etbk:pldat 2016-09-04T13:03,2016-06-21T16:47,2016-06-18T15:05,2016-06-16T18:08,2016-06-14T16:28
T: Sail away to the sea
Z: Piano Box Version by Martin Fleischmann
H: Created 2016-06-14 /  Modified 2016-06-21
M:4/4
L:1/8
P: aCapR-V1(+Guit+Acc)-R-V2-R-V3(+Bouz)-R-aCapR(nur mit Acc)                % play the parts in this order
R: song
K: Bmaj
P: R
[V:M1] |"c#m/C#"C3C "A"E3F | "E"G2GF E3E | "A"CC-CC C2B,A, | "H"B,7B, | 
[V:M2] | z8 | z8 | z8 | z8 | 
[V:M1] "c#m/C#"E3E "H"F2B2 | "E"GG-GF E3E | "A"C3C C2B,_E | "g#m/G#"E8 | "A"C3C C2B,A, | "H"B,8 |  
[V:M2] z8 | z8 | z8 | z8 | z8 | z8 | 
P: S
[V:M1] |"E"E3E "H"F2B2 | "E"GG-GF E3E | "A"CC-CC C2B,A, | "H"B,7B, | 
[V:M2] |z8 | z8 | z8 | z8 | 
[V:M1] "c#m/C#"E3E "H"F2B2 | "E"GG-GF E3E | "A"C3C C2B,A, | "H"B,8 |  
[V:M2] z8 | z8 | z8 | z8 |


